ExtensionSource/app/images/info-icon.svg

<svg id="erWCmv17bsK1" xmlns="http://www.w3.org/2000/svg" xmlns:xlink="http://www.w3.org/1999/xlink" viewBox="0 0 16 17" shape-rendering="geometricPrecision" text-rendering="geometricPrecision"><path d="M9.28348,11.5714v-1.4285c0-.0834-.02678-.15183-.08036-.2054s-.12202-.08036-.20535-.08036h-.85715v-4.57143c0-.08333-.02678-.15178-.08035-.20535s-.12203-.08036-.20536-.08036h-2.85714c-.08334,0-.15179.02679-.20536.08036s-.08036.12202-.08036.20535v1.42858c0,.08333.02679.15178.08036.20535s.12202.08036.20536.08036h.85714v2.85714h-.85714c-.08334,0-.15179.02679-.20536.08036s-.08036.122-.08036.2054v1.4285c0,.0834.02679.1518.08036.2054s.12202.0803.20536.0803h4c.08333,0,.15178-.0267.20535-.0803s.08036-.122.08036-.2054ZM8.14062,3.57143v-1.42857c0-.08334-.02678-.15179-.08035-.20536s-.12203-.08036-.20536-.08036h-1.71428c-.08334,0-.15179.02679-.20536.08036s-.08036.12202-.08036.20536v1.42857c0,.08333.02679.15178.08036.20535s.12202.08036.20536.08036h1.71428c.08333,0,.15179-.02678.20536-.08036s.08035-.12202.08035-.20535Zm4.79468.27678c.6131,1.04762.9196,2.19346.9196,3.4375s-.3065,2.39286-.9196,3.44639c-.6131,1.0477-1.4465,1.878-2.5,2.4911-1.04765.6131-2.19348.9197-3.43753.9197s-2.39286-.3066-3.44643-.9197c-1.04762-.6131-1.87798-1.4434-2.49107-2.4911-.613097-1.05353-.919645-2.20234-.919645-3.44639s.306548-2.38988.919645-3.4375c.61309-1.05357,1.44345-1.8869,2.49107-2.5c1.05357-.613091,2.20238-.919639,3.44643-.919639s2.38988.306548,3.43753.919639c1.0535.6131,1.8869,1.44643,2.5,2.5Z" fill="#fbfdff"/></svg>

<svg width="16" height="17" viewBox="0 0 16 17" fill="none" xmlns="http://www.w3.org/2000/svg">
<path d="M9.28348 11.5714V10.1429C9.28348 10.0595 9.2567 9.99107 9.20312 9.9375C9.14955 9.88393 9.0811 9.85714 8.99777 9.85714H8.14062V5.28571C8.14062 5.20238 8.11384 5.13393 8.06027 5.08036C8.0067 5.02679 7.93824 5 7.85491 5H4.99777C4.91443 5 4.84598 5.02679 4.79241 5.08036C4.73884 5.13393 4.71205 5.20238 4.71205 5.28571V6.71429C4.71205 6.79762 4.73884 6.86607 4.79241 6.91964C4.84598 6.97321 4.91443 7 4.99777 7H5.85491V9.85714H4.99777C4.91443 9.85714 4.84598 9.88393 4.79241 9.9375C4.73884 9.99107 4.71205 10.0595 4.71205 10.1429V11.5714C4.71205 11.6548 4.73884 11.7232 4.79241 11.7768C4.84598 11.8304 4.91443 11.8571 4.99777 11.8571H8.99777C9.0811 11.8571 9.14955 11.8304 9.20312 11.7768C9.2567 11.7232 9.28348 11.6548 9.28348 11.5714ZM8.14062 3.57143V2.14286C8.14062 2.05952 8.11384 1.99107 8.06027 1.9375C8.0067 1.88393 7.93824 1.85714 7.85491 1.85714H6.14063C6.05729 1.85714 5.98884 1.88393 5.93527 1.9375C5.8817 1.99107 5.85491 2.05952 5.85491 2.14286V3.57143C5.85491 3.65476 5.8817 3.72321 5.93527 3.77678C5.98884 3.83036 6.05729 3.85714 6.14063 3.85714H7.85491C7.93824 3.85714 8.0067 3.83036 8.06027 3.77678C8.11384 3.72321 8.14062 3.65476 8.14062 3.57143ZM12.9353 3.84821C13.5484 4.89583 13.8549 6.04167 13.8549 7.28571C13.8549 8.52976 13.5484 9.67857 12.9353 10.7321C12.3222 11.7798 11.4888 12.6101 10.4353 13.2232C9.38765 13.8363 8.24182 14.1429 6.99777 14.1429C5.75372 14.1429 4.60491 13.8363 3.55134 13.2232C2.50372 12.6101 1.67336 11.7798 1.06027 10.7321C0.447173 9.67857 0.140625 8.52976 0.140625 7.28571C0.140625 6.04167 0.447173 4.89583 1.06027 3.84821C1.67336 2.79464 2.50372 1.96131 3.55134 1.34821C4.60491 0.735119 5.75372 0.428571 6.99777 0.428571C8.24182 0.428571 9.38765 0.735119 10.4353 1.34821C11.4888 1.96131 12.3222 2.79464 12.9353 3.84821Z" fill="#24292E"/>
</svg>
